X:1
%
T:Banks of Clyde [1], The
M:C
L:1/8
R:Pipe Strathspey
B:William Ross - Ross's Collection of Pipe Music (1869, No. 184, p. 121)
Z:AK/Fiddler's Companion
K:Amix
a|c>AA>c A>AA>d|c>AA>e a>fe>d|c>AA>c A>AA>d|
B>GG>B g>Bd>B|c>AA>c A>AA>d|c>AA>e a/g/f/e/ a>e|
c>AA>c A<eA<d|B>GG>B g>Bd>B||c<eg>e a>eg>e|
c<eg>e f<aa>e|B<eg>e a>eg>f|e>Ag>d B>Gd>B|
c<eg>e a>eg>e|c<eg>e d<aa>e|c<eg>a g>ef>d|e>Ag>d BG d||

